!!!OTL: ZU KINDELSBERG AUF DEM HOHEN SCHLOSS
!!!ARE: Europa, Mitteleuropa, Deutschland
!!!SCT: B0141
!!!YEM: Copyright 1995, estate of Helmut Schaffrath.
**kern
*ICvox
*Ivox
*M6/8
*k[b-e-]
*B-:
{8f
=1
8b-
8f
8b-
8dd
8b-
8dd
=2
4ff
8ee-
4dd}
{8ee-
=3
8.dd
16cc
8b-
8.cc
16b-
8cc
=4
4.dd
4b-}
{8f
=5
8.f
16d
16g
16f
8.f
16d
16g
16f
=6
4g
8a
4b-}
{8dd
=7
8.cc
16b-
16a
16g
8f
8e-
8d
=8
4.e-
4d}
{8b-
=9
4cc
8b-
8.cc
16b-
8cc
=10
4.dd
4b-}
==
!!!AGN: Ballade, Romanze
!!!ONB: ESAC (Essen Associative Code) Database: BOEHME
!!!AMT: compound duple
!!!AIN: vox
!!!EED: Helmut Schaffrath
!!!EEV: 1.0
*-
